packages/icons/src/pending.svg

<svg viewBox="0 0 9 9" xmlns="http://www.w3.org/2000/svg"><path d="m8.20641 2.70856c-.07165.043-.14331.05733-.21496.05733-.12899 0-.25797-.07166-.34395-.18631-.12898-.21496-.28663-.40127-.44427-.58758-.15764-.15764-.14331-.4156.01433-.55891.15764-.15765.41561-.14331.55892.01433.20063.21497.38694.4586.54458.71656.12898.1863.07166.42994-.11465.54458z"/><path d="m5.98739 7.8679c.57325-.25796 1.08917-.6449 1.46178-1.1465.12898-.17197.38694-.21496.55892-.07165.17197.12898.21497.38694.07165.55891-.45859.60191-1.07484 1.08918-1.77706 1.40446-.05733.02866-.10032.02866-.15765.02866-.15764 0-.30095-.08598-.37261-.24363-.08599-.20063.01433-.44426.21497-.53025z"/><path d="m8.07816 5.40317c.12898-.47293.14331-.97453.08599-1.44746-.02867-.21496.11465-.4156.34395-.44426.21496-.02867.4156.11465.44426.34395.08599.58757.05733 1.17515-.10032 1.76273-.04299.18631-.21496.30096-.38694.30096-.02866 0-.07165 0-.10032-.01433-.21496-.07166-.34395-.28663-.28662-.50159z"/><path d="m5.74837.857647c-.05977-.205175.0581-.419958.26328-.479731s.41996.0581.47973.263276c.05977.205175-.0581.419958-.26327.479728-.20518.05978-.41996-.0581-.47974-.263273z"/><path d="m4.52451 0c.21497 0 .40127.171974.40127.401274 0 .214968-.17197.401273-.40127.401273-2.03503 0-3.697452 1.662423-3.697452 3.697453 0 .38694.057324.77388.186302 1.16082.07166.21497-.04299.42994-.257958.5016-.042993.01433-.085987.01433-.128981.01433-.171974 0-.329618-.10032-.372611-.2723-.1576434-.45859-.2293001-.93152-.2293001-1.40445 0-2.4793 2.0207001-4.5 4.5000001-4.5z"/><path d="m1.80158 6.99381c.70223.75955 1.69108 1.20382 2.72293 1.20382.21497 0 .40127.17197.40127.40127 0 .21497-.17197.40127-.40127.40127-1.24682 0-2.46497-.53025-3.31051-1.46178-.14331-.15764-.14331-.4156.02866-.55892.15765-.15764.40128-.14331.55892.01434z"/></svg>

<svg viewBox="0 0 9 9" xmlns="http://www.w3.org/2000/svg">
<path d="M8.20641 2.70856C8.13476 2.75156 8.0631 2.76589 7.99145 2.76589C7.86246 2.76589 7.73348 2.69423 7.6475 2.57958C7.51852 2.36462 7.36087 2.17831 7.20323 1.992C7.04559 1.83436 7.05992 1.5764 7.21756 1.43309C7.3752 1.27544 7.63317 1.28978 7.77648 1.44742C7.97711 1.66239 8.16342 1.90602 8.32106 2.16398C8.45004 2.35028 8.39272 2.59392 8.20641 2.70856Z"/>
<path d="M5.98739 7.8679C6.56064 7.60994 7.07656 7.223 7.44917 6.7214C7.57815 6.54943 7.83611 6.50644 8.00809 6.64975C8.18006 6.77873 8.22306 7.03669 8.07974 7.20866C7.62115 7.81057 7.0049 8.29784 6.30268 8.61312C6.24535 8.64178 6.20236 8.64178 6.14503 8.64178C5.98739 8.64178 5.84408 8.5558 5.77242 8.39815C5.68643 8.19752 5.78675 7.95389 5.98739 7.8679Z" />
<path d="M8.07816 5.40317C8.20714 4.93024 8.22147 4.42864 8.16415 3.95571C8.13548 3.74075 8.2788 3.54011 8.5081 3.51145C8.72306 3.48278 8.9237 3.6261 8.95236 3.8554C9.03835 4.44297 9.00969 5.03055 8.85204 5.61813C8.80905 5.80444 8.63708 5.91909 8.4651 5.91909C8.43644 5.91909 8.39345 5.91909 8.36478 5.90476C8.14982 5.8331 8.02083 5.61813 8.07816 5.40317Z" />
<path d="M5.74837 0.857647C5.6886 0.652472 5.80647 0.437689 6.01165 0.377916C6.21683 0.318143 6.43161 0.436016 6.49138 0.641192C6.55115 0.846367 6.43328 1.06115 6.22811 1.12092C6.02293 1.1807 5.80815 1.06282 5.74837 0.857647Z" />
<path d="M4.52451 0C4.73948 0 4.92578 0.171974 4.92578 0.401274C4.92578 0.616242 4.75381 0.802547 4.52451 0.802547C2.48948 0.802547 0.827058 2.46497 0.827058 4.5C0.827058 4.88694 0.884382 5.27388 1.01336 5.66082C1.08502 5.87579 0.97037 6.09076 0.755402 6.16242C0.712409 6.17675 0.669415 6.17675 0.626421 6.17675C0.454447 6.17675 0.296803 6.07643 0.25381 5.90445C0.0961666 5.44586 0.0245099 4.97293 0.0245099 4.5C0.0245099 2.0207 2.04521 0 4.52451 0Z" />
<path d="M1.80158 6.99381C2.50381 7.75336 3.49266 8.19763 4.52451 8.19763C4.73948 8.19763 4.92578 8.3696 4.92578 8.5989C4.92578 8.81387 4.75381 9.00017 4.52451 9.00017C3.27769 9.00017 2.05954 8.46992 1.214 7.53839C1.07069 7.38075 1.07069 7.12279 1.24266 6.97947C1.40031 6.82183 1.64394 6.83616 1.80158 6.99381Z" />
</svg>
